packages/webapp/public/images/template-logos/discord.svg

<svg width="62" height="62" viewBox="0 0 62 62" fill="none" xmlns="http://www.w3.org/2000/svg">
<mask id="mask0_496_978" style="mask-type:luminance" maskUnits="userSpaceOnUse" x="9" y="14" width="44" height="34">
<path d="M53 14H9V47.3478H53V14Z" fill="white"/>
</mask>
<g mask="url(#mask0_496_978)">
<path d="M46.2718 16.7916C43.3806 15.4694 40.3292 14.5302 37.1935 14C36.765 14.7661 36.3777 15.556 36.0314 16.3631C32.6923 15.8611 29.2968 15.8611 25.9577 16.3631C25.6114 15.556 25.2241 14.7661 24.7934 14C21.6577 14.5345 18.6042 15.4759 15.7108 16.8003C9.96522 25.2986 8.40713 33.5869 9.18619 41.7585C12.5513 44.245 16.3168 46.1342 20.3203 47.3483C21.2205 46.1342 22.0191 44.8487 22.7051 43.5027C21.4024 43.0158 20.145 42.4163 18.9483 41.7108C19.2642 41.4815 19.5716 41.2456 19.8702 41.0184C23.3522 42.6544 27.1522 43.5049 30.9999 43.5049C34.8476 43.5049 38.6478 42.6544 42.1297 41.0184C42.4305 41.2629 42.7379 41.4988 43.0495 41.7108C41.8506 42.4185 40.5933 43.0179 39.2883 43.507C39.9722 44.8509 40.7707 46.1364 41.6731 47.3483C45.6788 46.1385 49.4486 44.2493 52.8138 41.7628C53.727 32.2863 51.2513 24.0737 46.2718 16.7916ZM23.6897 36.7335C21.5214 36.7335 19.7274 34.7642 19.7274 32.3426C19.7274 29.9189 21.4586 27.9323 23.6833 27.9323C25.9079 27.9323 27.6868 29.9189 27.65 32.3426C27.6111 34.7642 25.9014 36.7335 23.6897 36.7335ZM38.308 36.7335C36.1353 36.7335 34.3499 34.7642 34.3499 32.3426C34.3499 29.9189 36.079 27.9323 38.308 27.9323C40.537 27.9323 42.3029 29.9189 42.2639 32.3426C42.2271 34.7642 40.5197 36.7335 38.308 36.7335Z" fill="#5865F2"/>
</g>
</svg>

<svg xmlns="http://www.w3.org/2000/svg" width="62" height="62" fill="none"><mask id="A" maskUnits="userSpaceOnUse" x="9" y="14" width="44" height="34"><path d="M53 14H9v33.348h44V14z" fill="#fff"/></mask><g mask="url(#A)"><path d="M46.272 16.792A36.43 36.43 0 0 0 37.194 14a25.18 25.18 0 0 0-1.162 2.363 33.88 33.88 0 0 0-10.074 0A24.67 24.67 0 0 0 24.794 14a36.6 36.6 0 0 0-9.083 2.8c-5.746 8.498-7.304 16.787-6.525 24.958a36.61 36.61 0 0 0 11.134 5.59 27.18 27.18 0 0 0 2.385-3.846c-1.303-.487-2.56-1.086-3.757-1.792.316-.229.623-.465.922-.692 3.482 1.636 7.282 2.486 11.13 2.486s7.648-.85 11.13-2.486c.301.245.608.48.92.692a23.88 23.88 0 0 1-3.761 1.796c.684 1.344 1.482 2.629 2.385 3.841 4.006-1.21 7.776-3.099 11.141-5.586.913-9.477-1.562-17.689-6.542-24.971zM23.69 36.734c-2.168 0-3.962-1.969-3.962-4.391s1.731-4.41 3.956-4.41 4.004 1.987 3.967 4.41-1.749 4.391-3.96 4.391zm14.618 0c-2.173 0-3.958-1.969-3.958-4.391s1.729-4.41 3.958-4.41 3.995 1.987 3.956 4.41-1.744 4.391-3.956 4.391z" fill="#5865f2"/></g></svg>
